X: 63
T:Pigeon on the Gate, The
N:page 21
N: heptatonic
M:2/4
L:1/16
C:Trad.
S:SRSNH 8.2
R:Reel
K:Amix
Q:1/4=60
|:af|"A"eA A/2A/2A ABcd|eA A/2A/2A a2af|eA A/2A/2A ABcd|"G"ef=ge "D"d2cd|"A" eA A/2A/2A ABcd|
EA A/2A/2A "D"a2af|"A"eA A/2A/2A ABcd|efge "D"d2::cd|"A"eaaf "D"gfed|"A"eaaf "G"g2fg|
"A"eaaf "G"gfed|"A"efge "D"d2cd|"A"eaaf "G"gfed|"A"eaaf "G"g2fg|afge "D"fdec|"G"dB B/2B/2B g2:|
